kora/apps/scalable/zoho-mail-desktop.svg

<svg xmlns="http://www.w3.org/2000/svg" width="48" height="48" version="1.1">
 <path style="opacity:0.2" d="M 24.01953,5 C 22.897398,4.9960516 21.800907,5.3354528 20.877202,5.9726562 L 6.3783603,15.972656 C 4.890237,16.999395 4.0016823,18.691946 4.001597,20.5 V 37 C 4.001597,37 3.9239745,38.72412 4.8511385,40.642578 5.7783025,42.561036 8.812302,45 11.916981,45 H 36.083019 C 39.187698,45 42.221698,42.561036 43.148862,40.642578 44.076025,38.72412 43.998403,37 43.998403,37 V 20.5 C 43.998318,18.691946 43.109763,16.999395 41.62164,15.972656 L 27.122798,5.9726562 C 26.210059,5.3430166 25.12834,5.0039738 24.01953,5 Z"/>
 <path style="fill:#e4e4e4" d="M 24.01953,4.000017 C 22.897398,3.9960686 21.800907,4.3354698 20.877202,4.9726732 L 6.3783603,14.972673 C 4.890237,15.999412 4.0016823,17.691963 4.001597,19.500017 V 36.000017 C 4.001597,36.000017 3.9239745,37.724137 4.8511385,39.642595 5.7783025,41.561053 8.812302,44.000017 11.916981,44.000017 H 36.083019 C 39.187698,44.000017 42.221698,41.561053 43.148862,39.642595 44.076025,37.724137 43.998403,36.000017 43.998403,36.000017 V 19.500017 C 43.998318,17.691963 43.109763,15.999412 41.62164,14.972673 L 27.122798,4.9726732 C 26.210059,4.3430336 25.12834,4.0039908 24.01953,4.000017 Z"/>
 <path style="opacity:0.1" d="M 24.005859,9 A 1.4999321,1.4999321 0 0 0 23.148438,9.265625 L 8.6484375,19.265625 A 1.4999321,1.4999321 0 0 0 8,20.5 V 26.208984 A 1.4999321,1.4999321 0 0 0 8.7558594,27.509766 L 23.255859,35.802734 A 1.4999321,1.4999321 0 0 0 24.759766,35.792969 L 33.246094,30.800781 33.257812,30.794922 A 1.5,1.5 0 0 0 33.259766,30.792969 1.4999321,1.4999321 0 0 0 33.285156,30.775391 1.4999321,1.4999321 0 0 0 34,29.224609 V 25.019531 C 34,23.296964 32.929242,22.027898 31.972656,21.521484 31.016071,21.01507 30.091797,21.001953 30.091797,21.001953 A 1.4999321,1.4999321 0 0 0 30.041016,21 H 17.958984 A 1.4999321,1.4999321 0 0 0 17.855469,21.003906 C 17.855469,21.003906 17.022726,21.044444 16.123047,21.441406 15.673207,21.639887 15.168211,21.939362 14.738281,22.449219 14.308352,22.959075 14,23.70667 14,24.5 A 1.5,1.5 0 0 0 17,24.5 C 17,24.378002 17.000246,24.41958 17.03125,24.382812 17.062254,24.346045 17.169246,24.258234 17.333984,24.185547 17.656394,24.043291 18.028453,24.001875 18.044922,24 H 29.996094 C 30.002246,24.000585 30.298588,24.029058 30.568359,24.171875 30.840918,24.316167 31,24.305875 31,25.019531 V 28.642578 L 23.990234,32.765625 11,25.337891 V 21.287109 L 24,12.322266 37,21.287109 V 37 C 37,37 36.97927,37.325347 36.847656,37.597656 36.716043,37.869965 36.775149,38 36.083984,38 H 11.916016 C 11.224851,38 11.283957,37.869965 11.152344,37.597656 11.02073,37.325347 11,37 11,37 V 31.5 A 1.5,1.5 0 0 0 8,31.5 V 37 C 8,37 7.9786153,37.924623 8.4511719,38.902344 8.9237285,39.880065 10.1905,41 11.916016,41 H 36.083984 C 37.8095,41 39.076272,39.880065 39.548828,38.902344 40.021385,37.924623 40,37 40,37 V 20.5 A 1.4999321,1.4999321 0 0 0 39.351562,19.265625 L 24.851562,9.265625 A 1.4999321,1.4999321 0 0 0 24.005859,9 Z"/>
 <path style="fill:none;stroke:#2f7abb;stroke-width:2.99956417;stroke-linecap:round;stroke-linejoin:round" d="M 9.499932,30.5 V 36 C 9.499932,36 9.499932,38.50006 11.916613,38.50006 H 36.083411 C 38.500091,38.50006 38.500091,36 38.500091,36 V 19.5 L 24.000011,9.4999021 9.499932,19.5 V 25.20832 L 24.000011,33.5 32.5,28.5"/>
 <path style="fill:none;stroke:#ffad42;stroke-width:2.99956417;stroke-linecap:round;stroke-linejoin:round" d="M 32.5,28.5 V 24.019524 C 32.5,21.583301 30.041711,21.5 30.041711,21.5 H 17.958311 C 17.958311,21.5 15.5,21.669344 15.5,23.5"/>
 <path style="opacity:0.2;fill:#ffffff" d="M 24.019531 4 C 22.897399 3.9960516 21.800658 4.3354528 20.876953 4.9726562 L 6.3789062 14.972656 C 4.890783 15.999395 4.0020384 17.691946 4.0019531 19.5 L 4.0019531 20.5 C 4.0020384 18.691946 4.890783 16.999395 6.3789062 15.972656 L 20.876953 5.9726562 C 21.800658 5.3354529 22.897399 4.9960516 24.019531 5 C 25.128341 5.0039738 26.210308 5.3430167 27.123047 5.9726562 L 41.621094 15.972656 C 43.109217 16.999395 43.997962 18.691946 43.998047 20.5 L 43.998047 19.5 C 43.997962 17.691946 43.109217 15.999395 41.621094 14.972656 L 27.123047 4.9726562 C 26.210308 4.3430167 25.128341 4.0039738 24.019531 4 z"/>
</svg>

<svg clip-rule="evenodd" fill-rule="evenodd" stroke-linecap="round" stroke-linejoin="round" viewBox="0 0 48 48" xmlns="http://www.w3.org/2000/svg">
 <linearGradient id="a" x2="1" gradientTransform="matrix(0 -40 40 0 24 44)" gradientUnits="userSpaceOnUse">
  <stop stop-color="#fff" offset="0"/>
  <stop stop-color="#fff" offset="1"/>
 </linearGradient>
 <g transform="matrix(1.0834 0 0 1.0834 -2.00158 -2.00158)">
  <path d="m24.02 4c-1.123-.004-2.219.335-3.143.973l-14.499 10c-1.488 1.026-2.376 2.719-2.376 4.527v18.889c0 3.105 2.642 5.611 5.747 5.611h28.503c3.105 0 5.746-2.506 5.746-5.611v-18.889c0-1.808-.888-3.501-2.376-4.527l-14.499-10c-.913-.63-1.995-.969-3.103-.973z" fill="url(#a)" fill-rule="nonzero"/>
  <g fill="none" stroke-width="3">
   <path d="m9.5 30.5v5.5s0 2.5 2.417 2.5h24.166c2.417 0 2.417-2.5 2.417-2.5v-16.5l-14.5-10-14.5 10v5.708l14.5 8.292 8.5-5" stroke="#2f7abb"/>
   <path d="m32.5 28.5v-4.48c0-2.437-2.458-2.52-2.458-2.52h-12.084s-2.458.169-2.458 2" stroke="#ffad42"/>
  </g>
 </g>
</svg>
